X:1
T:Title
%%score { ( 1 3 ) | ( 2 4 5 ) }
L:1/8
Q:1/4=104
M:4/4
K:G
V:1 treble nm="Grand Piano"
V:3 treble 
V:2 bass 
V:4 bass 
V:5 bass 
V:1
 [G,B,G]2 [G,DG]2 [G,EG]2 [G,DG]2 | [CEA]2 [A,DF]2 [B,DG]4 | [CEA]2 [D^GB]2 [EAc]2 [D=GB]2 | %3
w: W.~H.~G.~Bradner * * *|||
 A4 B4 | [B,DG]2 [B,EG]2 [CEG]2 [G,DG]2 | [CEA]2 [A,DF]2 [G,G]4 | [Ee]2 [CEA]2 [D^GB]2 [EAc]2 | %7
w: ||||
 [CFA]4 [B,DG]4 | [DBd]2 [Ee]2 [EAc]2 [DAd]2 | G2- [EGc]2 [DFA]4 | d2 e2 c2 d2 | B4 z4 | %12
w: |||||
 [^DFB]2 F2 G2 B2 | z4 B4 | [DFA]2 [DFd]2 [A,^CF]2 [G,CE]2 | z4 D4 | %16
w: ||||
 [G,B,G]2 [G,DG]2 [G,EG]2 [G,DG]2 | [CEA]2 [A,DF]2 [B,DG]4 | [CEA]2 [D^GB]2 [EAc]2 [D=GB]2 | %19
w: |||
 [DA]4 z4 | [B,G]2 [B,FG]2 [CEG]2 [DG]2 | [EA]2 z2 [DG]4 | A2 B2 c2 e2 | [CF]4 [B,G]4 |] %24
w: |||||
V:2
 G,,2 B,,2 C,2 B,,2 | A,,2 D,2 G,,4 | C,2 B,,2 A,,2 B,,C, | D,4 B,,4 | G,2 E,2 C,2 B,,2 | %5
 C,2 D,2 z2 B,2 | [C,A,]2 C,2 B,,2 A,,2 | D,4 G,,4 | G,2 [^G,B,]2 A,2 F,2 | G,2 C,2 D,4 | %10
 [B,F]2 [^G,B,E]2[K:bass] [A,E]2 [F,A,D]2 | [G,DG]2 [A,^C]2[K:bass] [D,D]4 | %12
 B,,2 [^D,B,]2 [E,B,E]2 [G,B,E]2 | z4[K:treble] [G,G]2 z2 | A,2 A,2 A,,2 A,,2 | z4 z2 C2 | %16
 G,,2 B,,2 C,2 B,,2 | A,,2 D,2 G,,4 | C,2 B,,2 A,,2 B,,C, | D,4 ^D,4 | E,2 D,2 C,2 B,,2 | %21
 A,,2 D,2 G,,4 | [A,,A,]2 [B,,B,]2 [C,C]2 [E,E]2 | [D,A,]4 [G,,G,]4 |] %24
V:3
 x8 | x8 | x8 | [DF]8 | x8 | z4 C2 z2 | x8 | x8 | x8 | [DB]2 z2 z4 | x8 | z2 E2 [FA]4 | x8 | %13
 d2 [Fc]2 z2 =F2 | x8 | [G,^CE]4 A,2 z2 | x8 | x8 | x8 | F4- [B,FB]4 | x8 | C2- [CDF]2 C2 B,2 | %22
 x8 | x8 |] %24
V:4
 x8 | x8 | x8 | x8 | x8 | z4 E,4 | x8 | x8 | x8 | x8 | x4[K:bass] x4 | x4[K:bass] x4 | x8 | %13
 [F,A,D]2 [D,D]2[K:treble] D2- [^G,D]2 | x8 | z4 F,4 | x8 | x8 | x8 | x8 | x8 | x8 | x8 | x8 |] %24
V:5
 x8 | x8 | x8 | x8 | x8 | x8 | x8 | x8 | x8 | x8 | x4[K:bass] x4 | x4[K:bass] x4 | x8 | %13
 x4[K:treble] x4 | x8 | D,8 | x8 | x8 | x8 | x8 | x8 | x8 | x8 | x8 |] %24

